bin/data/LUT/Cinematic-99.cube
TITLE "32x32x32 Adobe/IRIDAS cube 3D LUT exported with GrossGrade v0.1.027.1 (beta) 64 bit"
LUT_3D_SIZE 5
DOMAIN_MIN 0.000000 0.000000 0.000000
DOMAIN_MAX 0.903226 0.903226 0.903226
0.000000000 0.000000000 0.000000000
0.241746828 0.014333612 0.000000000
0.440177888 0.035944000 0.004693998
0.623960495 0.055695836 0.026713997
0.795489311 0.073840901 0.046685997
0.028446611 0.266381234 0.004473612
0.266822457 0.279517442 0.025422610
0.463520676 0.291677415 0.044953611
0.644027472 0.304372668 0.063413836
0.815650344 0.315650433 0.081874058
0.062752225 0.470356882 0.045174222
0.290606439 0.482075691 0.063193224
0.484910876 0.492376655 0.081212215
0.665637851 0.503780484 0.097813994
0.835528314 0.514648676 0.114321224
0.093781836 0.654580474 0.079479828
0.315461427 0.664220095 0.097498827
0.507812858 0.674647510 0.113564827
0.685830474 0.683877468 0.128307834
0.854618311 0.695060492 0.143964440
0.124621995 0.824092865 0.112021446
0.338993430 0.834205329 0.128087446
0.530179143 0.843435347 0.143082440
0.706779480 0.852665305 0.158077449
0.875378251 0.861895323 0.172379434
0.000000000 0.000000000 0.226783440
0.246314451 0.023122612 0.240990445
0.445501655 0.043850999 0.253591448
0.627331495 0.062531836 0.267042845
0.799395323 0.079448454 0.279738277
0.035723612 0.270728439 0.253150463
0.271169454 0.284400433 0.266822457
0.467112303 0.296024442 0.278887659
0.649036109 0.308184445 0.292559445
0.819020689 0.320438892 0.304813892
0.069588222 0.474798679 0.278667033
0.295804054 0.486422896 0.290606469
0.489352107 0.496723890 0.303522050
0.669544041 0.507812858 0.316753030
0.839434326 0.518554866 0.328818321
0.099546380 0.658140481 0.303301662
0.320879698 0.667370498 0.315902412
0.511939526 0.678112507 0.328156680
0.690398276 0.688445330 0.340316653
0.859091699 0.697990477 0.352602273
0.129505008 0.828692317 0.327936292
0.344222933 0.838111341 0.339434415
0.534180105 0.847341359 0.351279318
0.710906088 0.856791914 0.364100456
0.879284322 0.866778314 0.376134247
0.004883000 0.008159225 0.422158659
0.250756443 0.030840611 0.432900667
0.449848890 0.051569000 0.443548679
0.631678522 0.068705991 0.455172896
0.803396344 0.086536445 0.466891646
0.043000612 0.275611430 0.443548679
0.276052445 0.288747668 0.454511255
0.472309887 0.300466418 0.466450691
0.652186513 0.312626451 0.477854282
0.822927356 0.325762421 0.487934679
0.075353220 0.479145885 0.466009676
0.300907433 0.490864694 0.477192879
0.493699878 0.500535846 0.487934887
0.673891366 0.511939526 0.498582661
0.843246222 0.522555709 0.510206878
0.106161997 0.662046492 0.488596499
0.324691415 0.671938300 0.498582661
0.516601861 0.681483150 0.508883893
0.693989515 0.692225456 0.520287454
0.862777352 0.702337682 0.531155646
0.135364443 0.832598329 0.508883655
0.348664433 0.840725958 0.520067096
0.538873672 0.850270867 0.531155646
0.714938402 0.859501302 0.541236460
0.882308781 0.869802356 0.551758111
0.013041996 0.017924998 0.593340456
0.255985439 0.038747612 0.603547454
0.454290658 0.057523001 0.613848448
0.635679483 0.074911989 0.623960435
0.807743311 0.092930995 0.634356439
0.049174998 0.280494452 0.613659501
0.280935466 0.293189436 0.623740077
0.475901276 0.305349469 0.633946836
0.655872047 0.318485439 0.644027472
0.826959729 0.330204457 0.654359818
0.081747994 0.483587652 0.633505821
0.305790454 0.494329661 0.644468486
0.498141676 0.504977643 0.653698504
0.677482486 0.516160667 0.663999677
0.846711338 0.526461840 0.674647450
0.111359835 0.664976478 0.654580474
0.329132885 0.676159501 0.664220095
0.520728528 0.685389459 0.674647510
0.697549462 0.695911348 0.683877409
0.866337299 0.705015481 0.694619477
0.140908837 0.835528314 0.674206436
0.353767842 0.844947338 0.683436453
0.542559505 0.854177356 0.693548441
0.718623638 0.864069164 0.703408897
0.886120319 0.873519778 0.712733388
0.020508001 0.025390999 0.752709329
0.261309415 0.045583613 0.762033880
0.458102584 0.064359002 0.771264315
0.640247285 0.082188994 0.781565309
0.811114192 0.098444000 0.790795326
0.055475451 0.285723418 0.771043479
0.286164433 0.298072457 0.780935347
0.480909884 0.310358047 0.790354371
0.660534501 0.322738439 0.799804926
0.831306934 0.334551424 0.809034944
0.087607451 0.487934887 0.789724350
0.309917033 0.498582661 0.799804926
0.502488911 0.508442879 0.809696555
0.681388676 0.519846499 0.818580091
0.851152897 0.530462682 0.827810347
0.117565826 0.668882489 0.809255362
0.334551662 0.679845095 0.818359256
0.524508417 0.690272510 0.827148736
0.702117324 0.699502468 0.836599290
0.870054305 0.709362447 0.847152352
0.146893993 0.839434326 0.826928318
0.357673615 0.848632753 0.836158335
0.546780646 0.857989311 0.846270323
0.722404480 0.868101299 0.856382310
0.891003311 0.877520323 0.864919782
