bin/data/LUT/Cinematic-99.cube
TITLE "32x32x32 Adobe/IRIDAS cube 3D LUT exported with GrossGrade v0.1.027.1 (beta) 64 bit"
LUT_3D_SIZE 8
DOMAIN_MIN 0.000000 0.000000 0.000000
DOMAIN_MAX 0.903226 0.903226 0.903226
0.000000000 0.000000000 0.000000000
0.145634249 0.003434000 0.000000000
0.271232516 0.017609999 0.000000000
0.386183560 0.030431192 0.000000000
0.494077742 0.042023998 0.010773999
0.598065972 0.052324999 0.024351321
0.697832763 0.062815391 0.035250995
0.795489311 0.073840901 0.046685997
0.012349064 0.165543199 0.000000000
0.161763251 0.174332306 0.000882064
0.285156518 0.181798384 0.011152063
0.399508774 0.190461308 0.022398192
0.506993771 0.197549179 0.034873061
0.610383272 0.206464246 0.045111064
0.709583163 0.214308649 0.056483384
0.806672335 0.220640242 0.065870933
0.033738997 0.296874642 0.011277999
0.177640259 0.304687530 0.022524126
0.299080521 0.311775506 0.033990867
0.413306713 0.318863511 0.044985127
0.519247890 0.325951517 0.056231257
0.621975839 0.333039522 0.065996870
0.721270263 0.339623481 0.076550119
0.818013012 0.346711487 0.086662441
0.053648192 0.414881766 0.033738997
0.192666441 0.421969771 0.045111191
0.313256502 0.428427428 0.056105189
0.425024956 0.433814585 0.065744996
0.532667756 0.440902561 0.075416192
0.634450912 0.447643876 0.086158194
0.732548177 0.453723758 0.095577389
0.829637349 0.459614366 0.104744442
0.071856253 0.525327742 0.055223256
0.208417520 0.530462742 0.065744996
0.327211618 0.536542773 0.075542122
0.438476801 0.543158054 0.086032256
0.544418037 0.549741745 0.095325254
0.646389961 0.554876745 0.104492322
0.744487345 0.561460733 0.113879994
0.841135561 0.567194223 0.122920997
0.090411000 0.628055930 0.074786000
0.222593501 0.634891927 0.084457323
0.341009706 0.640625298 0.094695322
0.451203585 0.646389961 0.104492314
0.556136787 0.651524901 0.113533318
0.658612967 0.657352924 0.122227997
0.755513132 0.663968325 0.130008996
0.852413297 0.669858932 0.139680311
0.106539994 0.729082763 0.093624383
0.237903580 0.733997166 0.103358388
0.354807496 0.739573121 0.112651385
0.463646948 0.745243490 0.122479990
0.568800747 0.750819087 0.130008996
0.670237243 0.756206155 0.139680311
0.767704487 0.761089087 0.147335395
0.864163697 0.767956495 0.156187385
0.124621995 0.824092865 0.112021446
0.251638263 0.830645323 0.120967999
0.367376834 0.835717320 0.130009010
0.476436764 0.840757489 0.139049992
0.581558764 0.846270323 0.147587255
0.681483388 0.851153314 0.155809313
0.778919101 0.857863247 0.164976388
0.875378251 0.861895323 0.172379434
0.000000000 0.000000000 0.130261242
0.147839248 0.008568128 0.139302239
0.273910373 0.021516128 0.148091257
0.388388574 0.033738997 0.157132253
0.497480005 0.046056062 0.164220259
0.600018978 0.056200001 0.173261255
0.700542152 0.067194000 0.182050258
0.797631323 0.076235004 0.189138249
0.017357999 0.168598384 0.148217320
0.163842186 0.177388236 0.155305311
0.288936555 0.184728250 0.164094195
0.402312547 0.193517238 0.173135310
0.509324849 0.200604752 0.180223331
0.612934947 0.209394246 0.189264312
0.711662233 0.216482252 0.196793199
0.808751404 0.223916695 0.205267236
0.037645128 0.300529510 0.164220259
0.180097386 0.307617515 0.173135325
0.301537514 0.314705521 0.180349395
0.415133774 0.321415454 0.189138383
0.521421254 0.327652395 0.196100190
0.624181092 0.334992528 0.203692317
0.723759174 0.342080504 0.212355390
0.820596337 0.348916501 0.219569325
0.056955997 0.417685568 0.180601388
0.195974246 0.423922777 0.189138249
0.315461516 0.431010753 0.196100190
0.427356362 0.437342763 0.203818366
0.534494936 0.443233758 0.212103382
0.636403918 0.449943572 0.219695374
0.735320270 0.456054568 0.228232130
0.831968486 0.462008774 0.235320240
0.075416058 0.527028620 0.196226254
0.210150257 0.533486843 0.203566238
0.329636902 0.539251745 0.212229311
0.440902561 0.545583785 0.219695374
0.546843767 0.551443040 0.227476254
0.649099171 0.556955695 0.235320240
0.746723890 0.563413739 0.242786452
0.843372166 0.570060730 0.249937251
0.092994325 0.631268978 0.211347252
0.226027250 0.637096941 0.219443247
0.343907714 0.642231941 0.226531267
0.454227775 0.648469269 0.235320240
0.559413075 0.654170930 0.242408246
0.660565972 0.660565913 0.249748260
0.759293199 0.665700912 0.257529259
0.854366302 0.671434283 0.264522702
0.111202382 0.730280101 0.226531252
0.240423650 0.735824227 0.235320255
0.356760502 0.741526127 0.242408261
0.466828585 0.747669160 0.249496251
0.571761727 0.753276348 0.257277250
0.672316313 0.758159161 0.264144629
0.769909501 0.763294101 0.271232635
0.866305709 0.769878149 0.279706717
0.127457455 0.826928318 0.242408261
0.254599661 0.832724392 0.249496251
0.370936483 0.837670326 0.256678700
0.479650021 0.843309343 0.264018714
0.583637774 0.848223329 0.271106690
0.683782935 0.854366302 0.278698713
0.781124115 0.859690309 0.286668658
0.877331316 0.864730775 0.293945640
0.000000000 0.000252129 0.257781386
0.151745379 0.014302064 0.264144510
0.277564496 0.026399000 0.271232486
0.390467763 0.039220195 0.278446555
0.498960763 0.049363997 0.286857516
0.602192938 0.060357999 0.293693513
0.702495158 0.070595868 0.301537484
0.799584329 0.080866002 0.308625489
0.021138065 0.172253251 0.271232486
0.167748317 0.179719314 0.278446585
0.291866452 0.188508317 0.285408497
0.404643625 0.195722252 0.292748511
0.511656046 0.204259247 0.300781518
0.614762008 0.211599246 0.308373511
0.714465916 0.218939260 0.315461516
0.811366200 0.226216257 0.322423428
0.042528000 0.302482516 0.285408497
0.183751389 0.309570521 0.292496502
0.305191636 0.316658497 0.299584508
0.417685598 0.323746502 0.307869494
0.524130642 0.330834508 0.315209478
0.627110958 0.337922513 0.322297484
0.725964129 0.345010519 0.328912765
0.822549343 0.351751834 0.336126834
0.060484193 0.420394689 0.299584508
0.198053315 0.426852494 0.306672513
0.318989545 0.433562547 0.313760489
0.431010753 0.439799726 0.322045505
0.536826074 0.446131766 0.328156501
0.638483107 0.452274770 0.335622698
0.737651527 0.458984584 0.342458546
0.834425807 0.464717984 0.349546552
0.078692257 0.529706776 0.313760489
0.213552520 0.535818040 0.321194708
0.332787514 0.541204870 0.328156620
0.443485767 0.547536790 0.335244626
0.549300969 0.553679287 0.342332631
0.650579631 0.559413075 0.349420637
0.749874115 0.566375017 0.356256485
0.845325291 0.572013736 0.362084240
0.096900322 0.632938921 0.328030705
0.228232250 0.639050066 0.335118711
0.346207500 0.644184947 0.342206687
0.456432879 0.651272953 0.349042565
0.561366081 0.656754136 0.355500519
0.663149238 0.662518919 0.361894906
0.760994434 0.667653918 0.369455755
0.856949627 0.673481941 0.376417816
0.113880001 0.732233107 0.342080772
0.243101269 0.738880157 0.348412484
0.360162765 0.743731260 0.355248481
0.468907773 0.749874175 0.361894995
0.573715031 0.755261123 0.369455755
0.674489915 0.760963082 0.376039773
0.773343086 0.765940130 0.382119775
0.868038297 0.771831155 0.388766229
0.130009010 0.828881323 0.355059355
0.258285224 0.834016323 0.362021208
0.373519838 0.839623332 0.368825823
0.481697559 0.845262349 0.375913858
0.586441696 0.850396991 0.382308841
0.686239839 0.855752349 0.388892293
0.783706844 0.861643314 0.395854235
0.879284322 0.866778314 0.401934355
0.001732999 0.005638999 0.369203776
0.154675245 0.019185064 0.376291782
0.280147552 0.032132190 0.382182747
0.393774956 0.042528000 0.388892561
0.501858771 0.054026254 0.395980567
0.604901910 0.064737000 0.402312577
0.704826355 0.074533999 0.409400553
0.802419782 0.084961183 0.416394055
0.024697999 0.174836308 0.381930768
0.170552254 0.183625430 0.388766646
0.293945521 0.190839365 0.395854622
0.406596750 0.199502438 0.402312547
0.514081776 0.206716508 0.409400553
0.617219269 0.214182571 0.415133774
0.716671169 0.222719446 0.422473639
0.813508332 0.229555175 0.428049654
0.046182130 0.305664390 0.395476550
0.186429262 0.312626451 0.402312607
0.307869494 0.319367498 0.408896565
0.420142710 0.325699508 0.415385753
0.526083887 0.332787514 0.422347695
0.629063904 0.339875519 0.428175449
0.728106260 0.346963525 0.434822589
0.824754477 0.354051501 0.441406548
0.064390190 0.422473758 0.408045769
0.201360628 0.428805500 0.415133774
0.322045505 0.436019689 0.422221750
0.433215767 0.442603558 0.427356362
0.539503753 0.448210806 0.434066564
0.641633332 0.454920769 0.441154599
0.740140200 0.461315751 0.447643757
0.836284339 0.467017561 0.453723758
0.083449185 0.532163739 0.421969771
0.216482252 0.537298739 0.427608520
0.335244626 0.543662071 0.434318572
0.445438772 0.549867928 0.440902591
0.551253974 0.556577742 0.447517842
0.653225958 0.562468767 0.453345716
0.751322865 0.568296731 0.459866375
0.847845137 0.574408054 0.466324568
0.099577799 0.634891927 0.434318572
0.231256440 0.641633272 0.440303892
0.348916501 0.646642089 0.447391897
0.458732575 0.653225958 0.452778757
0.564421773 0.658360898 0.459236592
0.665448904 0.664944947 0.466072589
0.763105154 0.670678258 0.472687960
0.858997166 0.675686955 0.478641897
0.117282383 0.734942138 0.447265983
0.246062651 0.740833163 0.453030646
0.362084270 0.745967925 0.459740579
0.472435951 0.751700997 0.465820581
0.576172173 0.757214129 0.472687960
0.676442921 0.762790084 0.478515983
0.775296092 0.768145502 0.484910518
0.870243311 0.773784161 0.491242558
0.133284926 0.830834329 0.459488541
0.260238230 0.835969329 0.465568572
0.376165837 0.841733932 0.472562015
0.484028757 0.847215354 0.478705049
0.588394761 0.852350295 0.485036731
0.688319385 0.857737184 0.490990579
0.786416590 0.863596320 0.497227997
0.881111264 0.868731320 0.503119051
0.006836000 0.010773999 0.472561747
0.158329248 0.023941999 0.477822810
0.282699376 0.035691995 0.484784722
0.395980567 0.048135255 0.491116762
0.504316032 0.057648998 0.497952759
0.608052194 0.067949995 0.503937840
0.707378149 0.078440391 0.510206759
0.804278314 0.087701999 0.516286731
0.028982062 0.178144246 0.484532744
0.174332306 0.186177239 0.490864754
0.296276301 0.194021255 0.497227788
0.409274638 0.202054247 0.503937840
0.516916811 0.209394246 0.509072840
0.619770944 0.217238262 0.516034722
0.718498111 0.225271255 0.522177577
0.815461338 0.232359156 0.528414845
0.049363997 0.308373511 0.497227907
0.188760325 0.315209508 0.502866864
0.309822500 0.322045505 0.509450853
0.422221750 0.328628629 0.515782773
0.529234052 0.336441636 0.521421254
0.630765080 0.342899680 0.527784824
0.730847120 0.349420488 0.533864915
0.827243328 0.356508493 0.540511906
0.067571804 0.425024956 0.509198725
0.204763383 0.431514770 0.516034722
0.323998481 0.437846750 0.521673322
0.436145753 0.444178760 0.527406931
0.542086899 0.451644570 0.534242868
0.643239915 0.456779212 0.539755702
0.742534101 0.463394791 0.546087742
0.838237345 0.470356762 0.552198708
0.085528255 0.534621000 0.521421254
0.218939245 0.540322840 0.527028680
0.338174492 0.546339750 0.534368873
0.448273838 0.551947057 0.539755762
0.553679228 0.559035003 0.545835733
0.655935168 0.564673722 0.552199006
0.754284322 0.570249736 0.557585478
0.849924564 0.576991200 0.564169705
0.103736319 0.637852907 0.532667756
0.234564245 0.643932939 0.539755762
0.351499677 0.649067640 0.546087742
0.461315781 0.655557096 0.552325070
0.566249073 0.660313904 0.557585537
0.667401969 0.667149901 0.563917756
0.765562177 0.672757328 0.570060730
0.860698342 0.678395927 0.575794041
0.120211996 0.736895502 0.545111120
0.248992264 0.742786169 0.552199125
0.365045488 0.747921169 0.557333648
0.474168569 0.753748894 0.563665748
0.578597724 0.759671390 0.569808722
0.679152191 0.764743090 0.575668097
0.777501464 0.769878089 0.582251906
0.872700572 0.776367307 0.587134719
0.136246443 0.833669782 0.558089733
0.263136655 0.837922335 0.563413739
0.377772480 0.843057334 0.569052756
0.486485511 0.848790169 0.575542212
0.590852022 0.854303300 0.581558764
0.690366924 0.859438300 0.586882710
0.788716078 0.864919782 0.593876183
0.884167373 0.870684326 0.599011183
0.011719000 0.016255323 0.569808602
0.161259249 0.028982064 0.576297939
0.284904510 0.040826645 0.581873953
0.399256766 0.051316999 0.587512970
0.506048739 0.062059257 0.593466401
0.610131264 0.071226314 0.598758936
0.709331155 0.081873998 0.605846941
0.806231320 0.091608003 0.610981941
0.032982998 0.181168318 0.582125962
0.177388251 0.189264312 0.587260962
0.298702449 0.197045192 0.593718648
0.412235647 0.204259247 0.598633051
0.518869817 0.213174313 0.605720997
0.621597886 0.220136255 0.610729933
0.720451236 0.228484258 0.617345214
0.817540407 0.235761255 0.622290909
0.053018127 0.311271518 0.593372107
0.192288384 0.318359524 0.598632991
0.312752515 0.325447500 0.605342984
0.424930632 0.331842512 0.610477984
0.531470716 0.338426501 0.616841078
0.633946896 0.344758540 0.622668862
0.732800126 0.352318764 0.628811955
0.829196334 0.358524293 0.633946955
0.071226195 0.427482575 0.605090976
0.207346439 0.434066594 0.610729933
0.327085555 0.440398544 0.616715133
0.438098758 0.446887732 0.622353733
0.543914020 0.453219771 0.628559947
0.646075070 0.459614396 0.633694947
0.744109273 0.465820581 0.640184104
0.840568483 0.472404569 0.645885944
0.089213997 0.537046731 0.616589189
0.222215444 0.542654037 0.622101903
0.340379626 0.548544765 0.628307939
0.450951576 0.554624736 0.633820832
0.555884719 0.561114073 0.640058160
0.657762170 0.566249073 0.646389961
0.756269157 0.573211014 0.651776910
0.852161288 0.578849733 0.656880319
0.107295997 0.639428258 0.628055930
0.237273514 0.645885944 0.634198904
0.354303509 0.651020944 0.639932275
0.463772893 0.657762289 0.645696998
0.568202078 0.663023174 0.651524901
0.669985235 0.669354916 0.657006264
0.767326415 0.674489915 0.662770927
0.863281667 0.679719090 0.668094933
0.123424992 0.739069104 0.639806330
0.250945240 0.744613230 0.645444930
0.367754757 0.749874175 0.651272953
0.476940751 0.755954087 0.656880081
0.581306994 0.762097120 0.662644982
0.681105316 0.767326415 0.667905927
0.779737890 0.771831095 0.674741924
0.875000179 0.778226018 0.679656327
0.140247002 0.835024297 0.651020944
0.266129166 0.840883315 0.656249940
0.381174505 0.845010340 0.662519097
0.488943040 0.850649118 0.667905927
0.593372226 0.856855094 0.674489915
0.694083929 0.861391306 0.679530144
0.791047215 0.868038297 0.685735941
0.886120319 0.873267651 0.690870941
0.016381387 0.022019999 0.662897110
0.164724261 0.032730997 0.668032110
0.287865490 0.043977000 0.674616098
0.401587933 0.055223387 0.679719150
0.509702742 0.065996997 0.685358107
0.611989915 0.075479001 0.691816032
0.711284101 0.085276388 0.696320772
0.808373332 0.095955446 0.702747107
0.036763065 0.183972254 0.674237847
0.179467320 0.192792624 0.679152191
0.302041471 0.199880108 0.685862124
0.414629757 0.207787439 0.690366745
0.521452844 0.215978250 0.696698844
0.623551011 0.222971573 0.702621162
0.723255157 0.231634513 0.708071113
0.820155323 0.238974631 0.713993311
0.056199998 0.314201534 0.684854090
0.195218265 0.320816755 0.690492928
0.316217512 0.327400506 0.697076917
0.426978439 0.334488511 0.702243149
0.533864915 0.341576517 0.707819104
0.635899901 0.348664522 0.713741243
0.734501243 0.355248481 0.719065130
0.831590474 0.361643285 0.724704087
0.075290002 0.430506766 0.696856141
0.210402250 0.435893625 0.701991141
0.328880638 0.442855716 0.707567155
0.440650553 0.449439585 0.712859333
0.546339750 0.455802709 0.718813121
0.648721099 0.462260783 0.724956095
0.746219933 0.468151748 0.730595171
0.842994213 0.474861562 0.735572278
0.092868261 0.538999736 0.706874073
0.225523248 0.544859171 0.713237345
0.343340605 0.551191032 0.718561113
0.453975767 0.556577742 0.723947883
0.558593988 0.563413739 0.730090976
0.659872890 0.568548739 0.735446334
0.758663118 0.575164020 0.741589069
0.854114294 0.580802739 0.746913075
0.110572323 0.641727924 0.718309104
0.239604577 0.648217261 0.724452019
0.356508493 0.653729916 0.729965091
0.466072589 0.660061955 0.735572338
0.571761787 0.665196896 0.741337061
0.671938241 0.670678258 0.746597826
0.770665526 0.676442921 0.751952827
0.865738630 0.681766927 0.757907093
0.126827389 0.741022110 0.729839146
0.254221588 0.747417152 0.735824168
0.370432496 0.752520263 0.741085112
0.479271948 0.758159161 0.746219933
0.583259821 0.764050126 0.751826882
0.683530927 0.769405484 0.757466078
0.782132089 0.773784101 0.763042092
0.876827300 0.780620098 0.768271565
0.143082440 0.837481320 0.740833104
0.268775254 0.842364192 0.746220052
0.383001834 0.847971320 0.751953125
0.491872370 0.852854311 0.757466137
0.595230758 0.859186292 0.762790084
0.695155382 0.864226639 0.767956555
0.792496562 0.870243311 0.774036109
0.888829708 0.875315309 0.779171109
0.020508001 0.025390999 0.752709329
0.167118251 0.036510933 0.757592320
0.290795356 0.048355997 0.763797998
0.403761566 0.059160996 0.769279361
0.511152029 0.069650739 0.774414301
0.614383936 0.080267452 0.779801190
0.714213908 0.089214005 0.785660326
0.811114192 0.098444000 0.790795326
0.041330900 0.187689245 0.762159944
0.182932302 0.194966242 0.768901408
0.305065811 0.203566253 0.774162352
0.417591006 0.210843250 0.779801071
0.523626745 0.218183249 0.785282254
0.626354933 0.226783246 0.790543318
0.725460172 0.234060258 0.795804262
0.822108328 0.241148248 0.801663399
0.059854127 0.316154510 0.773910344
0.197423264 0.323242515 0.779675007
0.318611503 0.330330521 0.784715235
0.430569619 0.337166399 0.790291369
0.536448240 0.344159812 0.795804143
0.638105094 0.350995690 0.801789463
0.737399518 0.357705504 0.806672335
0.834173799 0.364289492 0.811807334
0.078062192 0.432963997 0.784904361
0.213048384 0.439358771 0.790039361
0.332346499 0.445690751 0.795930028
0.442981750 0.451770753 0.800907552
0.548922896 0.458480567 0.806420326
0.650579631 0.464213997 0.811807215
0.749181092 0.470923930 0.817288160
0.845073342 0.477192760 0.822801352
0.096648447 0.541456997 0.795300126
0.228232250 0.547032773 0.801096559
0.345766485 0.553175271 0.806168318
0.456054807 0.559538901 0.811933100
0.561366200 0.565871000 0.816910088
0.662771165 0.571509719 0.822549284
0.760112345 0.577589750 0.827810228
0.856571555 0.583826780 0.833291590
0.112871997 0.643680930 0.805916309
0.241652250 0.650579870 0.811303198
0.359280705 0.656060874 0.816910207
0.468655914 0.662014961 0.822297335
0.573211014 0.667149901 0.827684164
0.674237907 0.672977924 0.832913637
0.772650123 0.679278255 0.838678300
0.867534339 0.685483932 0.843813300
0.129001006 0.742975116 0.816721320
0.257686675 0.749370158 0.822045326
0.373141766 0.754757166 0.828314245
0.481445581 0.760616422 0.833291709
0.585843086 0.766003132 0.838426292
0.685735941 0.771579087 0.843687236
0.783328772 0.776619434 0.848915994
0.879032314 0.782825112 0.854807317
0.146893993 0.839434326 0.826928318
0.271736622 0.844569325 0.833480775
0.386561483 0.849892735 0.838174343
0.494330019 0.855248332 0.843309343
0.598066211 0.861139297 0.848916113
0.697706938 0.866274297 0.854555309
0.794355094 0.872196317 0.859690309
0.891003311 0.877520323 0.864919782
