bin/data/LUT/Cinematic-99.cube
TITLE "32x32x32 Adobe/IRIDAS cube 3D LUT exported with GrossGrade v0.1.027.1 (beta) 64 bit"
DOMAIN_MIN 0 0 0
DOMAIN_MAX 1 1 1
LUT_3D_SIZE 32
0.000000000 0.000000000 0.000000000
0.035408579 0.000000000 0.000000000
0.074660122 0.000000000 0.000000000
0.112493739 0.000283548 0.000000000
0.145634249 0.003434000 0.000000000
0.177892312 0.007308580 0.000000000
0.210150376 0.010522000 0.000000000
0.241746828 0.014333612 0.000000000
0.271232516 0.017609999 0.000000000
0.300907284 0.021358645 0.000000000
0.329447776 0.024067998 0.000000000
0.358335704 0.026776997 0.000000000
0.386183560 0.030431192 0.000000000
0.413401097 0.033046000 0.001228709
0.440177888 0.035944000 0.004693998
0.466860205 0.039503742 0.008253741
0.494077742 0.042023998 0.010773999
0.520760059 0.044039998 0.013860994
0.546402812 0.046623290 0.017326290
0.571604431 0.049049001 0.020949002
0.598065972 0.052324999 0.024351321
0.623960495 0.055695836 0.026713997
0.649162054 0.058026999 0.028729998
0.673639476 0.060043003 0.031470869
0.697832763 0.062815391 0.035250995
0.722025812 0.065051995 0.037707996
0.747039080 0.068705991 0.040543418
0.770539761 0.070186064 0.044418003
0.795489311 0.073840901 0.046685997
0.818862975 0.076045997 0.049615964
0.843939364 0.079007484 0.051694997
0.867187977 0.081055000 0.054687999
0.000000000 0.044355094 0.000000000
0.040416613 0.048324093 0.000000000
0.078660674 0.051285580 0.000000000
0.115612708 0.053396124 0.000000000
0.149697781 0.056294579 0.000000000
0.181892842 0.058310580 0.000000000
0.213835910 0.060673095 0.000000000
0.244046450 0.064453192 0.000000000
0.274067879 0.067225583 0.000000000
0.303553581 0.069273092 0.000094516
0.333165348 0.071572736 0.000220516
0.361044377 0.074250579 0.001260192
0.388987064 0.076266579 0.004662514
0.417023838 0.078692287 0.008253708
0.443643183 0.081275582 0.010868515
0.470860720 0.083291583 0.013766514
0.497543007 0.085780323 0.017294774
0.523280263 0.088237576 0.019846514
0.549584389 0.090316579 0.022398289
0.575604975 0.093466580 0.025989518
0.601405263 0.095608875 0.028824516
0.626953483 0.097278573 0.031470831
0.652155042 0.099294573 0.035156511
0.675970614 0.102066226 0.037739519
0.700605154 0.104303353 0.040543385
0.725806653 0.106319577 0.042811513
0.749433219 0.109910570 0.046402514
0.774256825 0.111423001 0.049584452
0.797757328 0.113281578 0.051726513
0.822706878 0.117061570 0.054624964
0.846018434 0.118353546 0.056704000
0.869203985 0.120338060 0.058751516
0.000315032 0.088521160 0.000000000
0.046402615 0.092364162 0.000000000
0.083638161 0.094380155 0.000000000
0.120464191 0.096490704 0.000000000
0.152974248 0.099389158 0.000000000
0.186618313 0.101405159 0.000000000
0.217238382 0.103547215 0.000000000
0.248897880 0.106288157 0.000189032
0.278194517 0.108304165 0.000441032
0.308215946 0.110540777 0.001291676
0.337197632 0.113313161 0.004505031
0.365014046 0.115329161 0.008253676
0.392672777 0.117345154 0.011593031
0.420426130 0.119707830 0.014806031
0.447265893 0.122291125 0.017263256
0.473822206 0.124370165 0.019941032
0.500157714 0.126386151 0.022398256
0.526367307 0.127929896 0.025895024
0.552955151 0.130450085 0.028919030
0.578566432 0.133285165 0.031470805
0.603893936 0.134733871 0.035062030
0.628969491 0.136403784 0.037771031
0.654233992 0.138483152 0.040543351
0.679435611 0.141822159 0.042780034
0.703125119 0.143649504 0.046308029
0.727885664 0.145445123 0.049489900
0.753087223 0.147398174 0.051758029
0.776587784 0.149414167 0.054561935
0.801537335 0.150611579 0.056704000
0.824911892 0.152533114 0.058783028
0.848097384 0.156376153 0.060799032
0.871345997 0.158455163 0.063855000
0.005544548 0.129379183 0.000000000
0.051348582 0.131363675 0.000000000
0.088584125 0.133442715 0.000000000
0.124590740 0.135521740 0.000000000
0.156911805 0.138420179 0.000000000
0.190650314 0.140341744 0.000283548
0.221081391 0.142357737 0.000661548
0.252898455 0.144247800 0.001323160
0.282667935 0.145602733 0.004410547
0.310641587 0.147618741 0.008253643
0.340285033 0.149855360 0.011057547
0.368762732 0.152533188 0.013577547
0.396012127 0.154549181 0.017231740
0.424111843 0.156470746 0.020035548
0.450573683 0.158486739 0.022398224
0.477129757 0.160880938 0.025800545
0.503150284 0.163401186 0.029013546
0.529927075 0.165511742 0.031470768
0.555569828 0.167054996 0.034967545
0.580771446 0.168661803 0.037802551
0.607138455 0.170678183 0.040354323
0.631709993 0.172599733 0.042811546
0.657068789 0.175214544 0.046213545
0.682365358 0.177514195 0.048166871
0.706244111 0.179624751 0.051348545
0.731004655 0.181640744 0.053805545
0.756017208 0.182743609 0.056546420
0.779706776 0.184602201 0.058814548
0.804467320 0.186618179 0.060830548
0.827841818 0.188634187 0.063854963
0.851215541 0.191406667 0.065839447
0.875283539 0.193454191 0.069808543
0.012349064 0.165543199 0.000000000
0.055506643 0.167559311 0.000000000
0.092616193 0.168724388 0.000000000
0.128591254 0.172442257 0.000283548
0.161763251 0.174332306 0.000882064
0.193737790 0.176316828 0.001354644
0.225050449 0.177514240 0.004316063
0.255166411 0.179656312 0.008253612
0.285156518 0.181798384 0.011152063
0.315241009 0.184539258 0.013483062
0.343655616 0.186555251 0.017200224
0.370779097 0.188319251 0.020130062
0.399508774 0.190461308 0.022398192
0.427325130 0.192193955 0.025706062
0.453786731 0.193643242 0.029108062
0.480279952 0.195659250 0.031470738
0.506993771 0.197549179 0.034873061
0.533392370 0.199975029 0.037834059
0.559475899 0.202432260 0.040291287
0.584677517 0.204448253 0.042843062
0.610383272 0.206464246 0.045111064
0.634860456 0.207819089 0.047662832
0.660566032 0.209520251 0.051254060
0.685137630 0.211536258 0.053837065
0.709583163 0.214308649 0.056483384
0.734784663 0.216545254 0.058846064
0.758348227 0.217175245 0.060862061
0.783234835 0.218624264 0.063602939
0.806672335 0.220640242 0.065870933
0.830109835 0.222782314 0.069462053
0.854933441 0.223979726 0.071036644
0.878181994 0.225964248 0.074723005
0.017547000 0.200667471 0.000000000
0.060389578 0.202369317 0.000094516
0.097499125 0.204385325 0.000724580
0.131678656 0.206495866 0.001386128
0.165637672 0.208574891 0.004284579
0.197738335 0.209772304 0.008253579
0.228043377 0.211788312 0.011246580
0.259797394 0.213709936 0.013388580
0.289094090 0.216482326 0.017168708
0.317414582 0.218498319 0.020224581
0.346869051 0.220514312 0.022398161
0.374590695 0.222152308 0.025611578
0.402438551 0.222971499 0.029202579
0.429498672 0.225586310 0.031470709
0.456432879 0.227602318 0.034778576
0.483115196 0.229618326 0.037865579
0.509482324 0.231130049 0.040228255
0.535818040 0.232673854 0.042874575
0.562342823 0.234690323 0.044890579
0.587544441 0.236706316 0.047662806
0.613060951 0.238879889 0.051159576
0.638105094 0.240392148 0.053868577
0.663306653 0.241778314 0.056420352
0.688508213 0.243794322 0.058877580
0.712197721 0.246566713 0.060893577
0.736958265 0.248803318 0.063854903
0.760521829 0.250819325 0.065902419
0.785408437 0.251134306 0.067918576
0.808845937 0.252898306 0.070973702
0.833858430 0.255828291 0.073084928
0.857170045 0.257907301 0.076833576
0.880198002 0.259923309 0.078912579
0.023406096 0.234564379 0.000567096
0.064610675 0.235005379 0.001102612
0.101720221 0.236895382 0.004379096
0.135805279 0.238753930 0.008159095
0.168850437 0.241652369 0.011278063
0.201108500 0.243668377 0.013357094
0.232201487 0.245684385 0.017137192
0.262254417 0.247479990 0.020319095
0.292118490 0.248740390 0.022398127
0.322077036 0.250756383 0.025517093
0.349420637 0.252772391 0.028919095
0.377804130 0.254788399 0.031470675
0.406281650 0.256426573 0.034305900
0.433278829 0.257844388 0.037897095
0.459740579 0.259860367 0.040165223
0.486958295 0.261876374 0.042906094
0.513483047 0.263199210 0.044922095
0.539535284 0.264931917 0.047662772
0.564736843 0.266948372 0.050309096
0.590127528 0.268964380 0.053144097
0.616211057 0.271421611 0.056357320
0.641255319 0.273595393 0.058909092
0.666142046 0.274603367 0.060925096
0.691343606 0.275674373 0.063854873
0.715411127 0.278257668 0.065933906
0.739793658 0.280683368 0.069147088
0.763735235 0.282699376 0.071288772
0.788621843 0.283392370 0.073147871
0.812059343 0.284778357 0.076739095
0.836693883 0.287519246 0.078944094
0.860005438 0.289787382 0.081905581
0.882403076 0.291803360 0.083953097
0.028446611 0.266381234 0.004473612
0.069241479 0.268397450 0.006552611
0.106540121 0.270413429 0.011278031
0.140719742 0.270917445 0.013451611
0.173103869 0.273563892 0.017105676
0.204889357 0.275485456 0.020287611
0.236958385 0.277501434 0.022429612
0.266822457 0.279517442 0.025422610
0.296024501 0.280557424 0.028950611
0.324376553 0.282573462 0.031470641
0.354114473 0.284589410 0.033959385
0.381678700 0.286605418 0.036668610
0.409526557 0.288464010 0.039787032
0.436523706 0.289661467 0.041803028
0.463520676 0.291677415 0.044953611
0.489761710 0.293693423 0.047662739
0.516412795 0.295142442 0.050403610
0.542464912 0.296308011 0.053049605
0.568548441 0.298765451 0.056294288
0.594128251 0.300781429 0.058940612
0.619707942 0.302797437 0.060956612
0.644027472 0.304372668 0.063413836
0.668599069 0.305853456 0.065965384
0.693800628 0.306861430 0.068989612
0.718561172 0.308373421 0.071414836
0.742628694 0.310515732 0.073210798
0.767231822 0.312941432 0.076644607
0.792433441 0.314957440 0.078975610
0.815650344 0.315650433 0.081874058
0.839276910 0.317036420 0.083984606
0.862462461 0.319777310 0.086725481
0.885648012 0.322045445 0.088772997
0.033738997 0.296874642 0.011277999
0.072926842 0.298639297 0.013546128
0.110320255 0.300655514 0.017074160
0.144594327 0.302671522 0.020193128
0.177640259 0.304687530 0.022524126
0.209646314 0.305821985 0.025422577
0.239352509 0.307743490 0.028982127
0.270822972 0.309759527 0.030998128
0.299080521 0.311775506 0.033990867
0.328282565 0.312815517 0.036574129
0.356571585 0.314831525 0.039913096
0.385206670 0.316847503 0.041708481
0.413306713 0.318863511 0.044985127
0.439862818 0.320722103 0.047662709
0.466513664 0.321919531 0.049994126
0.493038088 0.323935509 0.052955128
0.519247890 0.325951517 0.056231257
0.545678079 0.327179849 0.058972124
0.571320832 0.328754961 0.060988128
0.596522450 0.331023514 0.063350804
0.621975839 0.333039522 0.065996870
0.647177637 0.334551513 0.068013117
0.672379196 0.336126715 0.070973903
0.697076738 0.338111520 0.073273741
0.721270263 0.339623481 0.076550119
0.746030807 0.340568513 0.079007119
0.770161629 0.342773795 0.081590414
0.795205832 0.344947368 0.084016122
0.818013012 0.346711487 0.086662441
0.842427015 0.347404510 0.088772990
0.866242588 0.349294513 0.091041125
0.889428139 0.352035373 0.093057126
0.039503645 0.327841580 0.017042644
0.078219712 0.329132676 0.020098645
0.114132158 0.330897361 0.022618644
0.147996843 0.332913578 0.025422547
0.181640908 0.334929585 0.029013643
0.212355390 0.336945593 0.031344641
0.244109377 0.338080019 0.034116898
0.273910463 0.340001553 0.036479577
0.303081006 0.342017561 0.038621642
0.331338584 0.343466580 0.041613933
0.359973609 0.344789922 0.045016643
0.388136655 0.346522570 0.047662675
0.415448755 0.348538578 0.050025642
0.443296760 0.350554556 0.052860644
0.468813300 0.352413148 0.055853222
0.495841742 0.353893936 0.057995643
0.521988273 0.355626583 0.061019644
0.548702240 0.357138574 0.063287772
0.573620439 0.358272582 0.066028357
0.599389076 0.360603750 0.068044648
0.624936938 0.362430930 0.070973963
0.649918139 0.363974571 0.073336668
0.675120056 0.364793599 0.075888649
0.699439585 0.367250800 0.079038642
0.724137127 0.368573934 0.081527390
0.748771667 0.370148897 0.084047638
0.772902191 0.371881545 0.086063638
0.797221839 0.373897552 0.088646933
0.820659339 0.375315368 0.091072649
0.844411790 0.377236933 0.093088642
0.868920445 0.378969550 0.095766485
0.892168999 0.380985558 0.097814001
0.044544160 0.357453644 0.022083160
0.082094580 0.359469622 0.025422513
0.119298279 0.360823780 0.029045159
0.152722195 0.362745941 0.031250160
0.184728265 0.364541441 0.034242935
0.216608316 0.366557658 0.036384996
0.247826546 0.368195623 0.040039163
0.277847975 0.369298488 0.041613933
0.306168497 0.371566594 0.045048159
0.335339069 0.373645633 0.047631163
0.363596648 0.373708606 0.050057158
0.390845686 0.375693142 0.052766159
0.418693572 0.377079487 0.055979192
0.445690811 0.378780663 0.057901159
0.473223656 0.380796641 0.061051160
0.498740196 0.382812619 0.063224740
0.525264621 0.384639740 0.066059835
0.551537454 0.386183470 0.068076156
0.577369094 0.387884647 0.070974030
0.602728426 0.389900625 0.073399611
0.628685951 0.391286641 0.076361157
0.653194427 0.392326295 0.079070151
0.677766025 0.393901467 0.080708355
0.702652752 0.395665646 0.083575159
0.727539182 0.397051632 0.086095162
0.751480520 0.399067611 0.088583894
0.776304364 0.400579870 0.091104157
0.799804926 0.402438462 0.093120158
0.823305309 0.404139638 0.095703445
0.847687840 0.406155616 0.097813994
0.870999455 0.407541931 0.100145154
0.894814968 0.409526467 0.102161162
0.049237996 0.386026025 0.027816674
0.087134734 0.388010532 0.031092675
0.122669123 0.389711708 0.033801965
0.156754196 0.391727686 0.036290415
0.188760266 0.393113375 0.040070675
0.219317317 0.394972444 0.041613933
0.250819385 0.396799535 0.045079678
0.280746430 0.397555679 0.047536679
0.310106039 0.399067700 0.050183125
0.338426590 0.401525021 0.052671678
0.366967142 0.403856158 0.056073673
0.395161361 0.403950691 0.057806674
0.422379255 0.405966669 0.061082676
0.449533820 0.407919735 0.063161708
0.475838363 0.409369022 0.066091321
0.502803862 0.411038727 0.068107679
0.528162837 0.413054705 0.070974097
0.554214835 0.415070683 0.073462546
0.580298841 0.416866302 0.076266676
0.605847120 0.417780012 0.079101682
0.631048620 0.420142710 0.081401318
0.656250179 0.420835704 0.084110670
0.681451738 0.422221690 0.086126670
0.705582500 0.424615890 0.088520870
0.730122447 0.426065028 0.091135681
0.754662156 0.426946998 0.093151674
0.778982103 0.429309696 0.095640413
0.803175747 0.430632710 0.097813994
0.826896548 0.432113469 0.100176677
0.850176513 0.434035003 0.102192670
0.873362124 0.436051011 0.104807481
0.898500681 0.437720716 0.107201681
0.053648192 0.414881766 0.033738997
0.091261581 0.416897774 0.036195837
0.126953319 0.418315589 0.038905192
0.160408378 0.420237124 0.041613933
0.192666441 0.421969771 0.045111191
0.223412514 0.423985779 0.047127191
0.254662454 0.425024956 0.049931094
0.283518434 0.426663578 0.052577190
0.313256502 0.428427428 0.056105189
0.341797113 0.429120660 0.057806641
0.370243490 0.431136757 0.061114192
0.397933662 0.433751553 0.063130192
0.425024956 0.433814585 0.065744996
0.452621281 0.436208755 0.068139188
0.479775876 0.437468767 0.070218161
0.505702257 0.439390302 0.073525481
0.532667756 0.440902561 0.075416192
0.557491064 0.442918569 0.079133190
0.582692981 0.444556773 0.081338286
0.608871222 0.446131766 0.084142193
0.634450912 0.447643876 0.086158194
0.658896506 0.449439585 0.088457830
0.684098065 0.450069577 0.091167189
0.708606601 0.452463776 0.093183190
0.732548177 0.453723758 0.095577389
0.757749677 0.454920769 0.097813994
0.782069206 0.456999987 0.100208186
0.806199849 0.458228588 0.102224194
0.829637349 0.459614366 0.104744442
0.852822900 0.461630762 0.107233189
0.876764417 0.463646770 0.109249189
0.901147008 0.464308560 0.111864001
0.058279000 0.442698121 0.038999707
0.096112765 0.445060819 0.041613933
0.131584123 0.446320832 0.045142706
0.163842186 0.448336840 0.047158707
0.196100250 0.449786127 0.049868062
0.228043318 0.451802105 0.052482706
0.257907391 0.453629196 0.055002708
0.287361532 0.454290807 0.057806611
0.317288488 0.455802828 0.061145708
0.345514596 0.456936508 0.063161708
0.372858167 0.458953112 0.065744996
0.401209712 0.460622430 0.068107672
0.429372758 0.462575793 0.070186712
0.454668820 0.463457823 0.073021702
0.482453674 0.465978116 0.075195707
0.509135902 0.466104120 0.078156710
0.535345435 0.468529820 0.081086248
0.561365962 0.469726831 0.083291702
0.586126447 0.471585393 0.086189710
0.611706436 0.473192126 0.088394806
0.638073623 0.475208104 0.091198713
0.662361443 0.476814836 0.093214706
0.686523318 0.478263825 0.095514350
0.711725295 0.480027974 0.097813994
0.735414803 0.480784118 0.100239709
0.760175347 0.482359082 0.102255702
0.785376906 0.484784812 0.104681417
0.808877468 0.485981822 0.107264712
0.832063019 0.487525076 0.109280713
0.855657876 0.489447057 0.111800961
0.879914463 0.490644097 0.114289708
0.903163016 0.491526097 0.116305709
0.062752225 0.470356882 0.045174222
0.099546582 0.472908676 0.047190223
0.135301352 0.473727673 0.049805030
0.168315411 0.475082219 0.052199222
0.200321481 0.477192879 0.054467224
0.231634378 0.478578895 0.057806578
0.261687249 0.480594873 0.061177224
0.290606439 0.482075691 0.063193224
0.321131617 0.483587652 0.065745004
0.348979563 0.484438300 0.068044648
0.377205461 0.486611873 0.070218220
0.404328704 0.487934887 0.072927222
0.431451768 0.489226103 0.075290188
0.459205121 0.491242677 0.078062221
0.484910876 0.492376655 0.081212215
0.512096941 0.494770885 0.083197221
0.537928760 0.495841920 0.086221218
0.564075291 0.497259676 0.088331766
0.589276850 0.498393655 0.091230221
0.614919662 0.500409663 0.093246229
0.640310287 0.501984894 0.095451325
0.665637851 0.503780484 0.097813994
0.690272152 0.505481660 0.100271218
0.714308381 0.507497668 0.102287218
0.738880098 0.508442879 0.104618385
0.762758672 0.510017872 0.107296221
0.787960231 0.511530042 0.109312221
0.811460793 0.512884676 0.111737937
0.835528314 0.514648676 0.114321224
0.859186113 0.515782654 0.116337217
0.882434666 0.517231882 0.118857481
0.905620217 0.518302858 0.120904997
0.067319997 0.498110205 0.050686996
0.104019806 0.500063181 0.052230738
0.138798133 0.501260221 0.054372739
0.172883198 0.502488971 0.057806544
0.204889268 0.504253209 0.060200743
0.235131323 0.505261242 0.063224740
0.264994651 0.507277250 0.065744996
0.293945313 0.509072781 0.067981608
0.323935509 0.510836959 0.070249736
0.352822661 0.511844933 0.072832741
0.379851669 0.513735175 0.075416155
0.408234775 0.515436232 0.077967733
0.434948593 0.516444206 0.081243731
0.461756825 0.518050909 0.082346708
0.488911420 0.520003974 0.086189739
0.514680207 0.521011949 0.088268742
0.541362524 0.522587180 0.090788998
0.566564023 0.524477184 0.093277737
0.591765583 0.525138438 0.095388286
0.618038237 0.527154922 0.097814001
0.642672956 0.529013515 0.100302733
0.667874515 0.530683160 0.102318734
0.693076074 0.531754196 0.104555354
0.717773616 0.534242928 0.107327737
0.741526186 0.535030603 0.109343737
0.766097665 0.536826193 0.111674897
0.789976239 0.538149178 0.113879994
0.814421773 0.539850175 0.116368733
0.838426352 0.541393936 0.118794449
0.861800849 0.542527914 0.120904997
0.884986460 0.543945670 0.123393737
0.909116983 0.544985175 0.125409737
0.071856253 0.525327742 0.055223256
0.108997323 0.526367307 0.057806510
0.142326385 0.527785003 0.060295258
0.176411450 0.529391766 0.063256256
0.208417520 0.530462742 0.065744996
0.238816991 0.532163739 0.067918576
0.269027382 0.533675849 0.070281252
0.297693968 0.535566032 0.072738253
0.327211618 0.536542773 0.075542122
0.356067568 0.538558781 0.077873260
0.383694738 0.540574789 0.081275254
0.411416709 0.541299403 0.082472675
0.438476801 0.543158054 0.086032256
0.465694368 0.545174062 0.088300250
0.491557658 0.545835733 0.089843996
0.518176913 0.547725797 0.092332736
0.544418037 0.549741745 0.095325254
0.570092261 0.550309002 0.097372763
0.595293820 0.552261949 0.100334257
0.620684385 0.553868353 0.102350257
0.646389961 0.554876745 0.104492322
0.670394719 0.556892753 0.106854990
0.695596278 0.558026493 0.109375253
0.720797837 0.559696615 0.111611865
0.744487345 0.561460733 0.113879994
0.769247890 0.563035727 0.116400249
0.792811453 0.564043760 0.118416250
0.816689610 0.566564023 0.120778933
0.841135561 0.567194223 0.122920997
0.864321053 0.569115758 0.125441253
0.888010442 0.570249736 0.126890481
0.912140965 0.572202742 0.128938004
0.076896772 0.552010059 0.059853993
0.113502055 0.552073061 0.063287765
0.145886123 0.554530263 0.065744989
0.179971188 0.555664301 0.067855537
0.211977258 0.557428300 0.070312768
0.242219314 0.558782876 0.072643764
0.272902161 0.559917033 0.075668089
0.301600575 0.561681271 0.077337772
0.330393255 0.562815309 0.080739766
0.359343439 0.564831316 0.082598634
0.386939645 0.566532433 0.085244767
0.415259808 0.568328083 0.087953769
0.441280574 0.569147289 0.089906991
0.468592823 0.570848286 0.093214698
0.495054454 0.572864294 0.095356770
0.521200955 0.573526025 0.097372770
0.546969771 0.575479031 0.098443732
0.573589027 0.577495098 0.102381766
0.598790586 0.577999234 0.104429282
0.623992205 0.580015242 0.106854990
0.649193704 0.581842303 0.109406769
0.674269319 0.582630038 0.111422762
0.699156046 0.584488451 0.113596343
0.723286569 0.585150003 0.116431765
0.748047113 0.587166250 0.118447766
0.771736622 0.589182258 0.120715894
0.796371222 0.589560270 0.122920990
0.819556475 0.592112184 0.125472769
0.843435168 0.593561292 0.126417771
0.867880881 0.594317257 0.128811970
0.891475737 0.596333265 0.130071998
0.914692760 0.598349273 0.132560775
0.081369996 0.577652812 0.065335289
0.117030352 0.578849852 0.067792512
0.150359422 0.580739856 0.070344284
0.183436483 0.581842363 0.072360285
0.215442553 0.584079146 0.074912064
0.245842040 0.584394157 0.077369295
0.276115388 0.586819828 0.080582283
0.305601448 0.588016868 0.082724608
0.333858669 0.589528859 0.084394291
0.361768872 0.590631187 0.087796286
0.390089482 0.592363894 0.089969993
0.417717010 0.593970835 0.091639668
0.445312768 0.595230818 0.095010288
0.471900403 0.596049845 0.097404286
0.498645663 0.598065853 0.099388771
0.523847222 0.599609554 0.102224186
0.550372005 0.601121783 0.104429282
0.576707602 0.603137791 0.106035575
0.601247787 0.604019821 0.109438293
0.627583444 0.605784118 0.111454293
0.651650906 0.606666088 0.113533318
0.676852465 0.608587682 0.115329280
0.702621341 0.610288799 0.118479282
0.726940632 0.611989856 0.120652869
0.750504136 0.612367809 0.122920997
0.775264680 0.614951134 0.125504285
0.799521506 0.615329146 0.126386285
0.822454751 0.617313743 0.128685951
0.846774340 0.619455814 0.130198002
0.870652854 0.620778859 0.132592291
0.893964410 0.621534824 0.134608284
0.917149961 0.622983575 0.137033999
0.086000808 0.602854431 0.070375808
0.120653071 0.604870439 0.072391808
0.154801130 0.606823444 0.074849032
0.187059194 0.607548237 0.077400811
0.219065264 0.609690428 0.079416811
0.249307334 0.610005438 0.081968583
0.279927194 0.612021446 0.084425807
0.308751613 0.614037454 0.087638803
0.337607384 0.615801573 0.090033002
0.365801573 0.616715252 0.091765642
0.393712103 0.617723048 0.094852805
0.420583725 0.619172454 0.097435810
0.447549373 0.621188462 0.098695807
0.475554824 0.622038722 0.102066614
0.502079487 0.623866081 0.104460806
0.527281046 0.624937236 0.106098615
0.553490579 0.626323402 0.109375261
0.579259276 0.628339410 0.111485809
0.605784118 0.629221439 0.113501810
0.630261242 0.631017268 0.115297809
0.654958189 0.632151425 0.118510805
0.679467320 0.633474410 0.120463833
0.704763353 0.635490417 0.122354001
0.728925526 0.637506425 0.124338806
0.753559947 0.638609231 0.126354814
0.778320491 0.640373349 0.128559902
0.802104592 0.640940428 0.130324006
0.825195670 0.642641425 0.132623821
0.850019157 0.644657433 0.134639800
0.873393714 0.645476401 0.136970967
0.896579266 0.647398233 0.139648810
0.919165969 0.647776008 0.141664803
0.090411000 0.628055930 0.074786000
0.125252381 0.630071938 0.077432327
0.158329442 0.632024944 0.079448320
0.191532508 0.633127928 0.081905544
0.222593501 0.634891927 0.084457323
0.253339320 0.635206938 0.086473323
0.283203393 0.637222946 0.089213997
0.312563449 0.639018536 0.091891609
0.341009706 0.640625298 0.094695322
0.368920237 0.642294943 0.097467318
0.396799654 0.643680930 0.098821834
0.424332350 0.644373953 0.101909027
0.451203585 0.646389961 0.104492314
0.478011817 0.647996664 0.106161639
0.505355656 0.649445653 0.108430222
0.530935228 0.650516927 0.111202322
0.556136787 0.651524901 0.113533318
0.582567036 0.653540909 0.115360767
0.607863128 0.654422939 0.118416324
0.633411407 0.656218767 0.120558321
0.658612967 0.657352924 0.122227997
0.683121145 0.658675909 0.124307312
